X:1106
T:Mari nighean Deorsa,
C:Highland Air.
M:3/4
L:1/8
Q:1/4=104 "Slow"
N:bar 12 is printed |e>g e2 d2 B2|
Z:Jack Campin * www.campin.me.uk * 2009
K:G
D>E|     G2    G2  A>B|   d2  e2  dB| d>e ({de})g2  B>c          |{B}A3  G A2|
         G2    G2  g>e|{e}d3   B``AG| G3         A  B//A//B//A//G|   G4     :|
g>a|{ga} b2 {b}a2  g2 |{g}a2  g2  e2|=f2        ed  gd           |   e>g ed B2|
    {de}=f2    ed  gd |   eg``ed  B2| A2        A2  B>d          |   e4
d>e|     g>e   d>e g2 |   e>d B>d e2| d>B       A>B c2           |{B}A3  G A2|
         G2    G2  g>e|{e}d3   B``AG| G3         A  B//A//B//A//G|   G4     :|
<end>
<start>
